X:13525
T:Port Ui Mhuirgheasa
T:Morrisons
S:unknown. Photocopy from Tony Gordon. no. 50 on p. 20
M:6/8
I:speed 300
K:G
|: ~E3 ~B3 | ~E3 AFD | EBE ~B3 | d^cB AFD | 
~E3 ~B3 |~E3 AFD | GBG FGA | dAG FED :|
Bee ~fee | aee ~fed | Bee ~fee | a2g fed |
Bee ~fee | aee ~fed | gfe d2 A | BAG FED |
Bee ~fee | aee ~fed | Bee ~fee | faf def | 
~g3 gfe | def gfg | ed^c d2A | BAG FED ||
